static/assets/template/assets/img/icons/essential/detailed/Scales.svg

<svg height="145" viewBox="0 0 142 145" width="142" xmlns="http://www.w3.org/2000/svg"><g fill="none" fill-rule="evenodd" transform="translate(1 2)"><path d="m52.6 105.4c-3.2 11.4-13.6 19.7-26 19.7s-22.8-8.3-26-19.7z" fill-rule="nonzero"/><path d="m139 74.3c-3.2 11.4-13.6 19.7-26 19.7s-22.8-8.3-26-19.7z" fill-rule="nonzero"/><path d="m52.6 109.5c-2.9 9-12.2 15.6-23.3 15.6-7.6 0-14.4-3.1-18.8-7.9-2.7-2.9-.6-7.7 3.4-7.7z" fill-rule="nonzero"/><path d="m139 78.2c-2.7 9.1-11.8 15.8-22.5 15.8-8.1 0-15.2-3.8-19.4-9.7-1.8-2.6.1-6.2 3.2-6.2h38.7z" fill-rule="nonzero"/><g stroke-linecap="round" stroke-linejoin="round" stroke-width="3"><path d="m77 18 49.6-17.8"/><path d="m11.1 41.7 49.3-17.7"/><path d="m68.9 30.1v110.5"/><path d="m103.3 140.6h.7"/><path d="m33.7 140.6h61.9"/><path d="m52.6 105.4c-3.2 11.4-13.6 19.7-26 19.7s-22.8-8.3-26-19.7z"/><path d="m9.4 85 16.8-38.6 26.4 59"/><path d="m5.7 93.7.7-1.8"/><path d="m.6 105.4 1.7-4.1"/><path d="m139 74.3c-3.2 11.4-13.6 19.7-26 19.7s-22.8-8.3-26-19.7z"/><path d="m87 74.3 25.6-59 26.4 59"/></g><circle cx="68.9" cy="21.3" fill-rule="nonzero" r="8.8"/><circle cx="70.6" cy="23.1" fill-rule="nonzero" r="7"/><circle cx="68.9" cy="21.3" r="8.8" stroke-linecap="round" stroke-linejoin="round" stroke-width="3"/></g></svg>

<?xml version="1.0" encoding="UTF-8"?>
<svg width="142px" height="145px" viewBox="0 0 142 145" version="1.1" xmlns="http://www.w3.org/2000/svg" xmlns:xlink="http://www.w3.org/1999/xlink">
    <!-- Generator: Sketch 51.2 (57519) - http://www.bohemiancoding.com/sketch -->
    <title>Scales</title>
    <desc>Created with Sketch.</desc>
    <defs></defs>
    <g id="Page-1" stroke="none" stroke-width="1" fill="none" fill-rule="evenodd">
        <g id="Scales" transform="translate(1.000000, 2.000000)">
            <path d="M52.6,105.4 C49.4,116.8 39,125.1 26.6,125.1 C14.2,125.1 3.8,116.8 0.6,105.4 L52.6,105.4 Z" id="Shape" class="fill-neutral" fill-rule="nonzero"></path>
            <path d="M139,74.3 C135.8,85.7 125.4,94 113,94 C100.6,94 90.2,85.7 87,74.3 L139,74.3 Z" id="Shape" class="fill-neutral" fill-rule="nonzero"></path>
            <path d="M52.6,109.5 C49.7,118.5 40.4,125.1 29.3,125.1 C21.7,125.1 14.9,122 10.5,117.2 C7.8,114.3 9.9,109.5 13.9,109.5 L52.6,109.5 Z" id="Shape" class="fill-primary-300" fill-rule="nonzero"></path>
            <path d="M139,78.2 C136.3,87.3 127.2,94 116.5,94 C108.4,94 101.3,90.2 97.1,84.3 C95.3,81.7 97.2,78.1 100.3,78.1 L139,78.1 L139,78.2 Z" id="Shape" class="fill-primary-300" fill-rule="nonzero"></path>
            <path d="M77,18 L126.6,0.2" id="Shape" class="stroke-primary" stroke-width="3" stroke-linecap="round" stroke-linejoin="round"></path>
            <path d="M11.1,41.7 L60.4,24" id="Shape" class="stroke-primary" stroke-width="3" stroke-linecap="round" stroke-linejoin="round"></path>
            <path d="M68.9,30.1 L68.9,140.6" id="Shape" class="stroke-primary" stroke-width="3" stroke-linecap="round" stroke-linejoin="round"></path>
            <path d="M103.3,140.6 L104,140.6" id="Shape" class="stroke-primary" stroke-width="3" stroke-linecap="round" stroke-linejoin="round"></path>
            <path d="M33.7,140.6 L95.6,140.6" id="Shape" class="stroke-primary" stroke-width="3" stroke-linecap="round" stroke-linejoin="round"></path>
            <path d="M52.6,105.4 C49.4,116.8 39,125.1 26.6,125.1 C14.2,125.1 3.8,116.8 0.6,105.4 L52.6,105.4 Z" id="Shape" class="stroke-primary" stroke-width="3" stroke-linecap="round" stroke-linejoin="round"></path>
            <polyline id="Shape" class="stroke-primary" stroke-width="3" stroke-linecap="round" stroke-linejoin="round" points="9.4 85 26.2 46.4 52.6 105.4"></polyline>
            <path d="M5.7,93.7 L6.4,91.9" id="Shape" class="stroke-primary" stroke-width="3" stroke-linecap="round" stroke-linejoin="round"></path>
            <path d="M0.6,105.4 L2.3,101.3" id="Shape" class="stroke-primary" stroke-width="3" stroke-linecap="round" stroke-linejoin="round"></path>
            <path d="M139,74.3 C135.8,85.7 125.4,94 113,94 C100.6,94 90.2,85.7 87,74.3 L139,74.3 Z" id="Shape" class="stroke-primary" stroke-width="3" stroke-linecap="round" stroke-linejoin="round"></path>
            <polyline id="Shape" class="stroke-primary" stroke-width="3" stroke-linecap="round" stroke-linejoin="round" points="87 74.3 112.6 15.3 139 74.3"></polyline>
            <circle id="Oval" class="fill-neutral" fill-rule="nonzero" cx="68.9" cy="21.3" r="8.8"></circle>
            <circle id="Oval" class="fill-primary-300" fill-rule="nonzero" cx="70.6" cy="23.1" r="7"></circle>
            <circle id="Oval" class="stroke-primary" stroke-width="3" stroke-linecap="round" stroke-linejoin="round" cx="68.9" cy="21.3" r="8.8"></circle>
        </g>
    </g>
</svg>
